assets/gi/gi-abstract-073.svg

<svg xmlns="http://www.w3.org/2000/svg" width="100%" height="100%" viewBox="-35.84 -35.84 583.68 583.68"><path d="m21,21c3.4783,40.6253 6.0335,83.7688 7.6484,128.6726h57.4378c35.4366-56.5052 98.2955-94.03 169.9138-94.03s134.4772,37.5248 169.9138,94.03h57.4378c1.6149-44.9039 4.1701-88.0473 7.6484-128.6726-71.8204,6.1492-151.296,9.598-235,9.598s-163.1796-3.4488-235-9.598zm235,69.4352c-91.4295,0-165.5648,74.1352-165.5648,165.5648 0,74.4026 49.1187,137.3503 116.6752,158.2164v-219.2534c0-33.1858 21.7441-59.8373 48.8896-59.8373s48.8896,26.6515 48.8896,59.8373v219.2534c67.5565-20.866 116.6752-83.8138 116.6752-158.2164 0-91.4295-74.1353-165.5648-165.5648-165.5648zm-101.9783,98.0791c16.2408,0 29.5437,13.153 29.5437,29.3937s-13.3029,29.3938-29.5437,29.3938-29.3937-13.153-29.3937-29.3938 13.1529-29.3937 29.3937-29.3937zm203.8066,0c16.2408,0 29.3938,13.153 29.3938,29.3937s-13.153,29.3938-29.3938,29.3938-29.5437-13.153-29.5437-29.3938 13.303-29.3937 29.5437-29.3937zm-327.9802.7498c.4871,21.9008.7499,44.152.7499,66.7358s-.2627,44.8349-.7499,66.7358h37.1921c-7.3866-20.8959-11.3976-43.3104-11.3976-66.7358s4.0109-45.84 11.3976-66.7358h-37.1921zm415.1117,0c7.3866,20.8958 11.3976,43.3104 11.3976,66.7358s-4.011,45.8399-11.3976,66.7358h37.1921c-.4872-21.9009-.7499-44.152-.7499-66.7358s.2627-44.8349.7499-66.7358h-37.1921zm-416.3114,173.0632c-1.6148,44.9038-4.1701,88.0474-7.6484,128.6726 71.8204-6.1491 151.296-9.598 235-9.598s163.1796,3.4488 235,9.598c-3.4783-40.6253-6.0335-83.7688-7.6484-128.6726h-57.4378c-35.4366,56.5052-98.2955,94.03-169.9138,94.03s-134.4772-37.5248-169.9138-94.03h-57.4378z"/></svg>

<svg xmlns="http://www.w3.org/2000/svg" width="100%" height="100%" viewBox="-35.84 -35.84 583.68 583.68"><path d="M21 21c3.478 40.625 6.034 83.769 7.648 128.673h57.438c35.437-56.506 98.296-94.03 169.914-94.03s134.477 37.524 169.914 94.03h57.438C484.967 104.769 487.522 61.625 491 21c-71.82 6.15-151.296 9.598-235 9.598S92.82 27.149 21 21zm235 69.435C164.57 90.435 90.435 164.57 90.435 256c0 74.403 49.119 137.35 116.675 158.216V194.963c0-33.186 21.745-59.837 48.89-59.837s48.89 26.651 48.89 59.837v219.253C372.446 393.35 421.565 330.403 421.565 256c0-91.43-74.136-165.565-165.565-165.565zm-101.978 98.08c16.24 0 29.543 13.152 29.543 29.393s-13.302 29.394-29.543 29.394-29.394-13.153-29.394-29.394 13.153-29.394 29.394-29.394zm203.806 0c16.241 0 29.394 13.152 29.394 29.393s-13.153 29.394-29.394 29.394-29.543-13.153-29.543-29.394 13.303-29.394 29.543-29.394zm-327.98.75c.487 21.9.75 44.151.75 66.735s-.263 44.835-.75 66.736H67.04C59.654 301.84 55.643 279.426 55.643 256s4.01-45.84 11.397-66.736H29.848zm415.112 0c7.386 20.895 11.397 43.31 11.397 66.735s-4.01 45.84-11.397 66.736h37.192c-.487-21.901-.75-44.152-.75-66.736s.263-44.835.75-66.736H444.96zM28.648 362.326C27.034 407.231 24.478 450.375 21 491c71.82-6.15 151.296-9.598 235-9.598S419.18 484.85 491 491c-3.478-40.625-6.034-83.769-7.648-128.673h-57.438c-35.437 56.505-98.296 94.03-169.914 94.03s-134.477-37.525-169.914-94.03H28.648z"/></svg>
